ion/volume-high.svg

<svg viewBox="0 0 512 512" xmlns="http://www.w3.org/2000/svg"><g><path d="M232 416h0c-5.12 0-10.09-1.65-14.2-4.68v0c-.23-.16-.45-.33-.66-.51L125.76 336H56v0c-13.26 0-24-10.75-24-24V200v0c0-13.26 10.74-24 24-24h69.75l91.37-74.81v0c.21-.19.43-.36.66-.51v-.001c10.67-7.86 25.7-5.57 33.55 5.11 3.02 4.11 4.66 9.09 4.66 14.2v272 0c0 13.25-10.75 24-24 24Zm-106.18-80Zm-.27-159.86Z"/><path d="M320 336v0c-8.84-.01-16-7.17-16-16.01 0-2.5.58-4.96 1.7-7.19 9.49-18.87 14.3-38 14.3-56.81 0-19.38-4.66-37.94-14.25-56.73v0c-3.88-7.95-.58-17.53 7.37-21.4 7.73-3.78 17.07-.75 21.12 6.85 11.93 23.39 17.74 46.71 17.74 71.27 0 23.86-6 47.81-17.7 71.19h-.001c-2.72 5.4-8.26 8.81-14.3 8.81Z"/><path d="M368 384v0c-8.84 0-16.01-7.16-16.01-16 -.01-2.81.73-5.58 2.14-8.01 18.91-32.91 29.86-60.49 29.86-104 0-44.17-10.93-71.56-29.82-103.94v0c-4.36-7.7-1.65-17.46 6.04-21.81 7.54-4.28 17.12-1.75 21.59 5.68 21.1 36.17 34.18 68.87 34.18 120.06 0 50.43-13.06 83.29-34.13 120v0c-2.87 4.95-8.15 8-13.87 8Z"/><path d="M416 432v0c-8.84-.01-16-7.18-15.99-16.02 0-3.1.9-6.14 2.59-8.73 27.24-41.79 45.39-83.5 45.39-151.26 0-66.5-18.18-108.62-45.49-151.39v0c-4.76-7.46-2.57-17.36 4.89-22.11 7.45-4.76 17.35-2.57 22.11 4.89 30.3 47.5 50.49 94.35 50.49 168.61 0 64.75-14.66 113.63-50.6 168.74v0c-2.96 4.52-8 7.25-13.4 7.26Z"/></g></svg>

<svg xmlns="http://www.w3.org/2000/svg" width="512" height="512" viewBox="0 0 512 512"><path d="M232,416a23.88,23.88,0,0,1-14.2-4.68,8.27,8.27,0,0,1-.66-.51L125.76,336H56a24,24,0,0,1-24-24V200a24,24,0,0,1,24-24h69.75l91.37-74.81a8.27,8.27,0,0,1,.66-.51A24,24,0,0,1,256,120V392a24,24,0,0,1-24,24ZM125.82,336Zm-.27-159.86Z"/><path d="M320,336a16,16,0,0,1-14.29-23.19c9.49-18.87,14.3-38,14.3-56.81,0-19.38-4.66-37.94-14.25-56.73a16,16,0,0,1,28.5-14.54C346.19,208.12,352,231.44,352,256c0,23.86-6,47.81-17.7,71.19A16,16,0,0,1,320,336Z"/><path d="M368,384a16,16,0,0,1-13.86-24C373.05,327.09,384,299.51,384,256c0-44.17-10.93-71.56-29.82-103.94a16,16,0,0,1,27.64-16.12C402.92,172.11,416,204.81,416,256c0,50.43-13.06,83.29-34.13,120A16,16,0,0,1,368,384Z"/><path d="M416,432a16,16,0,0,1-13.39-24.74C429.85,365.47,448,323.76,448,256c0-66.5-18.18-108.62-45.49-151.39a16,16,0,1,1,27-17.22C459.81,134.89,480,181.74,480,256c0,64.75-14.66,113.63-50.6,168.74A16,16,0,0,1,416,432Z"/></svg>
